Papirus/24x24/panel/insync-paused.svg

<?xml version="1.0" encoding="UTF-8" standalone="no"?>
<svg xmlns:dc="http://purl.org/dc/elements/1.1/" xmlns:cc="http://creativecommons.org/ns#" xmlns:rdf="http://www.w3.org/1999/02/22-rdf-syntax-ns#" xmlns:svg="http://www.w3.org/2000/svg" xmlns="http://www.w3.org/2000/svg" id="svg2" viewBox="0 0 1771.6469 1771.6467" version="1.1" width="24" height="24" xml:space="preserve" style="clip-rule:evenodd;fill-rule:evenodd;image-rendering:optimizeQuality;shape-rendering:geometricPrecision;text-rendering:geometricPrecision">
    <metadata id="metadata18">
        <rdf:RDF>
            <cc:Work rdf:about="">
                <dc:format>
                    image/svg+xml
                </dc:format>
                <dc:type rdf:resource="http://purl.org/dc/dcmitype/StillImage"/>
                <dc:title/>
            </cc:Work>
        </rdf:RDF>
    </metadata>
    <defs id="defs4">
        <style id="style6" type="text/css">
            <![CDATA[
    .fil2 {fill:#11A861}
    .fil0 {fill:#3777E3}
    .fil1 {fill:#FFCF63}
   ]]>
        </style>
    </defs>
    <g transform="translate(73.818607,73.818556)" id="g4135">
        <path style="opacity:0.3;fill:#ffffff;fill-opacity:1;fill-rule:evenodd" d="M 8.5761719,3 13.6875,12 15,12 16,12 19.128906,12 14,3 8.5761719,3 Z M 7.7128906,3.5078125 2,13.599609 4.7148438,18.488281 10.470703,8.3613281 7.7128906,3.5078125 Z M 8.3808594,14.064453 5.5761719,19 11,19 l 0,-4.935547 -2.6191406,0 z" transform="scale(73.818621,73.818621)" id="path10"/>
        <path id="path14" d="m 885.81723,959.64374 0,442.90996 221.45997,0 0,-442.90996 -221.45997,0 z m 295.26997,0 0,442.90996 221.46,0 0,-442.90996 -221.46,0 z" style="clip-rule:evenodd;opacity:1;fill:#ffffff;fill-opacity:1;fill-rule:evenodd;image-rendering:optimizeQuality;shape-rendering:geometricPrecision"/>
    </g>
</svg>

<?xml version="1.0" encoding="UTF-8" standalone="no"?>
<svg id="svg2" xmlns:rdf="http://www.w3.org/1999/02/22-rdf-syntax-ns#" style="image-rendering:optimizeQuality;text-rendering:geometricPrecision;shape-rendering:geometricPrecision" xmlns="http://www.w3.org/2000/svg" fill-rule="evenodd" xml:space="preserve" viewBox="0 0 1771.6469 1771.6467" width="24" version="1.1" clip-rule="evenodd" xmlns:cc="http://creativecommons.org/ns#" height="24" xmlns:dc="http://purl.org/dc/elements/1.1/">
    <metadata id="metadata18">
        <rdf:RDF>
            <cc:Work rdf:about="">
                <dc:format>
                    image/svg+xml
                </dc:format>
                <dc:type rdf:resource="http://purl.org/dc/dcmitype/StillImage"/>
                <dc:title/>
            </cc:Work>
        </rdf:RDF>
    </metadata>
    <defs id="defs4">
        <style id="style6" type="text/css">
            <![CDATA[
    .fil2 {fill:#11A861}
    .fil0 {fill:#3777E3}
    .fil1 {fill:#FFCF63}
   ]]>
        </style>
    </defs>
    <g id="g4135" fill-rule="evenodd" fill="#fff" transform="translate(73.819 73.819)">
        <path id="path10" opacity=".3" d="m8.5762 3 5.1118 9h1.312 1 3.129l-5.129-9h-5.4238zm-0.8633 0.5078-5.7129 10.092 2.7148 4.888 5.7562-10.127-2.7581-4.8532zm0.668 10.556-2.8047 4.936h5.4238v-4.9355h-2.6191z" transform="scale(73.819)"/>
        <path id="path14" style="image-rendering:optimizeQuality;shape-rendering:geometricPrecision" d="m885.82 959.64v442.91h221.46v-442.91h-221.46zm295.27 0v442.91h221.46v-442.91h-221.46z" clip-rule="evenodd"/>
    </g>
</svg>
